X:1
T:Title
%%score [ ( 1 2 ) ( 3 4 ) ]
L:1/8
Q:1/4=120
M:3/4
K:G
V:1 treble nm="Midi_74" snm=" "
V:2 treble 
V:3 bass nm="Midi_74"
V:4 bass 
V:1
"^vv. 1, 2 anon\nv. 3 John Thomas McFarland?" d2 | d3 c B2 | B2 A2"^Away in a manger" G2 | %3
w: A-|way in a|man- ger, no|
w: |||
w: Be|near me, Lord|Je- sus; I|
 G2 F2 E2 | D4 D2 | D3"^James R. Murray" E D2 |[M:3/4] D2 A2 F2 | E2 D2 G2 | B4 d2 | d3 c B2 | %10
w: crib for a|bed, the|lit- tle Lord|Je- sus laid|down his sweet|head. The|stars in the|
w: |||||||
w: ask thee to|stay close|by me for-|ev- er, and|love me, I|pray; bless|all the dear|
 B3 A G2 | G2 F2 E2 | D4 D2 | c3 B A2 | B2 A2 G2 | A2 E2 F2 | G4 |] %17
w: bright sky looked|down where he|lay, the|lit- tle Lord|Je- sus, a-|sleep on the|hay.|
w: |||||||
w: child- ren in|thy ten- der|care, and|fit us for|hea- ven, to|live with thee|there.|
V:2
 B2 | B3 A G2 | G2 D2 D2 | E2 D2 C2 | B,4 B,2 | C3 C C2 |[M:3/4] C2 C2 C2 | C2 B,2 D2 | G4 B2 | %9
w: |||||||||
w: The|cat- tle are|low- ing, the|ba- by a-|wakes, but|lit- tle Lord|Je- sus, no|cry- ing he|makes; I|
 B3 A G2 | G3 D D2 | E2 D2 C2 | B,4 D2 | F3 D D2 | D2 D2 D2 | E2 C2 C2 | B,4 |] %17
w: ||||||||
w: love thee, Lord|Je- sus, look|down from the|sky and|stay by my|side un- til|morn- ing is|nigh.|
V:3
 D2 | D3 D D2 | D2 C2 B,2 | C2 G,2 G,2 | G,4 G,2 | F,3 F, F,2 |[M:3/4] F,2 F,2 A,2 | G,2 G,2 B,2 | %8
 D4 D2 | D3 D D2 | D3 C B,2 |"^This edition  Andrew Sims 2014" C2 G,2 G,2 | G,4 B,2 | A,3 G, F,2 | %14
 G,2 C2 B,2 | C2 A,2 A,2 | G,4 |] %17
V:4
 G,2 | G,3 G, G,2 | G,2 G,2 G,2 | C,2 C,2 C,2 | G,,4 G,2 | D,3 D, D,2 |[M:3/4] D,2 D,2 D,2 | %7
 G,2 G,2 G,2 | G,4 G,2 | G,3 G, G,2 | G,3 G, G,2 | C,2 C,2 C,2 | G,,4 G,2 | D,3 D, D,2 | %14
 G,2 G,2 G,2 | C,2 C,2 D,2 | G,,4 |] %17

